packages/tokens/icons/journey/size16Px.svg

<svg viewBox="0 0 16 16" fill="none" xmlns="http://www.w3.org/2000/svg" width="1em" height="1em"><path d="M6.5 9.5L6.06659 9.93341C4.94819 11.0518 3.11699 10.9908 2.07545 9.80052V9.80052C1.17343 8.76963 1.17343 7.23037 2.07545 6.19948V6.19948C3.11699 5.00916 4.94819 4.94819 6.06659 6.06659L9.93341 9.93341C11.0518 11.0518 12.883 10.9908 13.9245 9.80052V9.80052C14.8266 8.76963 14.8266 7.23037 13.9245 6.19948V6.19948C12.883 5.00916 11.0518 4.94819 9.93341 6.06659L9.5 6.5" stroke="currentColor" stroke-linecap="round"/></svg>

<svg xmlns="http://www.w3.org/2000/svg" fill="none" viewBox="0 0 16 16" width="1em" height="1em"><path stroke="currentColor" stroke-linecap="round" d="m6.5 9.5-.433.433a2.734 2.734 0 0 1-3.992-.132v0a2.734 2.734 0 0 1 0-3.602v0a2.734 2.734 0 0 1 3.992-.132l3.866 3.866a2.734 2.734 0 0 0 3.992-.132v0a2.734 2.734 0 0 0 0-3.602v0a2.734 2.734 0 0 0-3.992-.132L9.5 6.5"/></svg>
